X: 1
T:Pretty Peg
C:Trad
R:Reel
M:C|
K:D
Z:From e.g. Horo Gheallaidh
L:1/8
A|d2 fd AFDF|d2 fd (3efg fe|d2 fd AFDF|GEFD ^CEE2 :|
A|(3FED AD BDAD|(3GFE (3FED ^CEEA|(3FED AD BDAD|(3GFE (3FED A,DD2|
(3FED dD ^cDBD | AD (3FED ^CEE2 |FAdf e^cdB|AFGE FDD ||
